packages/kaspersky-hexa-ui-icons/src/iconsSVGs/16/LinksChecked.svg

<svg width="16" height="16" viewBox="0 0 16 16" fill="none" xmlns="http://www.w3.org/2000/svg">
<path fill-rule="evenodd" clip-rule="evenodd" d="M10.999 8.01631C12.6464 8.01631 13.982 9.35236 13.9824 10.9997C13.9823 11.5876 13.8093 12.1344 13.5156 12.5964L15.1259 14.2067L15.2089 14.3093C15.3754 14.5616 15.348 14.9046 15.1259 15.1267C14.9039 15.3484 14.5607 15.376 14.3086 15.2097L14.206 15.1267L12.5957 13.5163C12.1337 13.8099 11.5869 13.9831 10.999 13.9831C9.3519 13.9826 8.01574 12.6469 8.01558 10.9997C8.01593 9.3527 9.35202 8.01686 10.999 8.01631ZM10.999 9.31709C10.07 9.31764 9.31672 10.0707 9.31636 10.9997C9.31652 11.9289 10.0699 12.6827 10.999 12.6833C11.9286 12.6833 12.6824 11.9293 12.6826 10.9997C12.6822 10.0703 11.9284 9.31709 10.999 9.31709Z" fill="black"/>
<path d="M4.45601 6.44697C4.7099 6.19373 5.12229 6.19334 5.37593 6.44697C5.62944 6.70063 5.62913 7.11305 5.37593 7.36689L3.83101 8.91182C2.94105 9.80213 2.94088 11.2452 3.83101 12.1354C4.67407 12.9782 6.01155 13.0216 6.90718 12.2683C7.04018 12.6975 7.24048 13.097 7.49312 13.4567C6.09689 14.4351 4.15942 14.3014 2.91207 13.0544C1.51425 11.6565 1.51344 9.38989 2.91109 7.99189L4.45601 6.44697Z" fill="black"/>
<path d="M9.0566 5.99092C9.31042 5.73771 9.72187 5.73747 9.97554 5.99092C10.202 6.2178 10.2243 6.57028 10.0459 6.82393C8.47109 7.1825 7.22507 8.40791 6.8398 9.97236C6.83328 9.99885 6.82825 10.0258 6.82222 10.0524C6.567 10.2585 6.19427 10.2463 5.95699 10.0095C5.70348 9.75574 5.70359 9.34433 5.95699 9.09053L9.0566 5.99092Z" fill="black"/>
<path d="M7.95797 2.94502C9.35596 1.54739 11.6236 1.54721 13.0214 2.94502C14.2568 4.18067 14.3988 6.09475 13.4502 7.48799C13.0909 7.23678 12.6919 7.03809 12.2636 6.90596C12.9863 6.01082 12.9331 4.69689 12.1015 3.86494C11.2113 2.97481 9.7682 2.97499 8.87789 3.86494L7.32515 5.4167C7.07136 5.67046 6.66005 5.67039 6.40621 5.4167C6.15237 5.16286 6.15237 4.75062 6.40621 4.49678L7.95797 2.94502Z" fill="black"/>
</svg>

<svg xmlns="http://www.w3.org/2000/svg" width="16" height="16" fill="none" viewBox="0 0 16 16"><path fill="#000" fill-rule="evenodd" d="M7.958 2.945c1.398-1.3977 3.6656-1.3978 5.0634 0 1.2354 1.2356 1.3774 3.1497.4288 4.543a4.27 4.27 0 0 0-1.1866-.5821c.7227-.8951.6695-2.209-.1621-3.041-.8902-.8902-2.3333-.89-3.2236 0L7.3252 5.4166a.65.65 0 0 1-.919 0 .651.651 0 0 1 0-.9199zm1.0986 3.0459a.6506.6506 0 0 1 .919 0c.2264.2268.2487.5793.0703.833-1.5748.3586-2.8208 1.584-3.2061 3.1484-.0065.0265-.0116.0534-.0176.0801-.2552.2061-.628.1938-.8652-.043a.6504.6504 0 0 1 0-.919zm-4.6006.456c.2539-.2532.6663-.2536.92 0 .2534.2537.2531.666 0 .92L3.831 8.9116c-.89.8904-.8901 2.3335 0 3.2237.843.8427 2.1805.8862 3.0762.1328.133.4293.3333.8287.586 1.1885-1.3963.9783-3.3338.8447-4.5811-.4024-1.3978-1.3979-1.3987-3.6645-.001-5.0625zm6.543 1.5693c1.6474 0 2.983 1.336 2.9834 2.9834-.0001.588-.1731 1.1348-.4668 1.5967l1.6103 1.6104.083.1025a.6505.6505 0 0 1-.083.8174.651.651 0 0 1-.8173.083l-.1026-.083-1.6103-1.6104c-.462.2936-1.0088.4668-1.5967.4668-1.6471-.0005-2.9833-1.3362-2.9834-2.9834.0003-1.647 1.3364-2.9828 2.9834-2.9833m0 1.3008c-.929.0006-1.6823.7536-1.6826 1.6826.0001.9292.7535 1.6831 1.6826 1.6836.9296 0 1.6834-.754 1.6836-1.6836-.0004-.9293-.7542-1.6826-1.6836-1.6826"/></svg>
